X:1
T:Reflections of the Morning Dew
M:4/4
L:1/8
K:Dm
D2F2A2A4|D2F2E2D4|C2C2G2G4|F2F2E2D4| D2F2A2A4|D2F2E2D4|C2A2G2F2|E8||